src/telerik-icons/solid/align-right.svg

<?xml version="1.0" encoding="utf-8"?>
<svg xmlns="http://www.w3.org/2000/svg" width="512" height="512" viewBox="0 0 512 512">
  <path d="M64 192h384v32H64v-32zm384-96V64H64v32h384zm-288 64h288v-32H160v32zM64 320v32h384v-32H64zm96-32h288v-32H160v32zm0 96v32h288v-32H160z"/>
</svg>

<?xml version="1.0" encoding="utf-8"?>
<!-- Generator: Adobe Illustrator 19.2.1, SVG Export Plug-In . SVG Version: 6.00 Build 0)  -->
<svg xmlns="http://www.w3.org/2000/svg" width="512" height="512" viewBox="0 0 512 512">
<path d="M64,192h384v32H64V192z M448,96V64H64v32H448z M160,160h288v-32H160V160z M64,320v32h384v-32H64z M160,288h288v-32H160V288z
	 M160,384v32h288v-32H160z" />
</svg>
